icon-themes/breeze_svg/cmd/lc_footnotedialog.svg

<svg viewBox="0 0 24 24" xmlns="http://www.w3.org/2000/svg"><path d="m5 4v5h1v-4h9v11h-8v1 3h8v-1h-7v-2h8v-10h2v6h1v-7h-1-2v-1-1h-1zm2 3v1h6v-1zm0 2v1h3v-1zm-2 1c-.55228 0-1 .44772-1 1 0 .55229.44772 1 1 1s1-.44771 1-1c0-.55228-.44772-1-1-1zm0 4c-.55228 0-1 .44772-1 1 0 .55229.44772 1 1 1s1-.44771 1-1c0-.55228-.44772-1-1-1zm0 4c-.55228 0-1 .44772-1 1 0 .55229.44772 1 1 1s1-.44771 1-1c0-.55228-.44772-1-1-1z" fill="#4d4d4d"/><path d="m7 14v1h5v-1zm11 0v1h1v-1zm0 2v4h1v-4z" fill="#1d99f3"/></svg>

<svg viewBox="0 0 24 24" xmlns="http://www.w3.org/2000/svg">
  <path
     style="fill:#4d4d4d"
     d="M 5 4 L 5 9 L 6 9 L 6 5 L 15 5 L 15 16 L 7 16 L 7 17 L 7 20 L 15 20 L 15 19 L 8 19 L 8 17 L 16 17 L 16 7 L 18 7 L 18 13 L 19 13 L 19 6 L 18 6 L 16 6 L 16 5 L 16 4 L 15 4 L 5 4 z M 7 7 L 7 8 L 13 8 L 13 7 L 7 7 z M 7 9 L 7 10 L 10 10 L 10 9 L 7 9 z M 5 10 C 4.44772 10 4 10.44772 4 11 C 4 11.55229 4.44772 12 5 12 C 5.55228 12 6 11.55229 6 11 C 6 10.44772 5.55228 10 5 10 z M 5 14 C 4.44772 14 4 14.44772 4 15 C 4 15.55229 4.44772 16 5 16 C 5.55228 16 6 15.55229 6 15 C 6 14.44772 5.55228 14 5 14 z M 5 18 C 4.44772 18 4 18.44772 4 19 C 4 19.55229 4.44772 20 5 20 C 5.55228 20 6 19.55229 6 19 C 6 18.44772 5.55228 18 5 18 z " />
  <path
     style="fill:#1d99f3"
     d="m 7,14 v 1 h 5 v -1 z m 11,0 v 1 h 1 v -1 z m 0,2 v 4 h 1 v -4 z" />
</svg>
